X:1
T:As I Ought to Do
T:As I Ought to Do
T:Rollin Chauncey Ward
T:Rollin Chauncey Ward, 1914
T:Public Domain Courtesy of the Cyber Hymnal™
C:Rollin Chauncey Ward
Z:Public Domain
Z:Courtesy of the Cyber Hymnal™
%%score ( 1 2 ) ( 3 4 )
L:1/8
Q:1/4=85
M:6/8
K:G
V:1 treble 
V:2 treble 
V:3 bass 
V:4 bass 
V:1
"^Duet – Soprano & Tenor" B,/C/ | DDD E2 _E | D3- D2 G/A/ | BBB c2 c | B3- B2 G/F/ | EEE (GF)E | %6
w: 1.~I will|work as I ought to|work * In the|vine- yard from day to|day; * I will|pray as I ought * to|
w: 2.~I will|watch as I ought to|watch, * Lest I|en- ter the paths of|sin; * I will|say what I ought * to|
w: 3.~I will|give as I ought to|give * Of my|tal- ents and earth- ly|store; * I will|live as I ought * to|
w: 4.~I will|trust as I ought to|trust * In the|blood flow- ing full and|free; * I will|do what I ought * to|
 (D3 B2) A/A/ | GFG B2 A | G3- G2 ||"^Refrain" B/c/ | d[Gd][Gd] e2 [Ad] | d3- [Gd]2 [EG]/[FA]/ | %12
w: pray, * Ere the|har- vest has passed a-|way. *||||
w: say * Of the|wit- ness I have with-|in. *|Bless- èd|Lord, help me thus to|do, For my strength|
w: live, * Till the|jour- ney of life is|o’er. *||||
w: do * For my|Sav- ior who died for|me. *||||
 [GB][GB][GB] [Fc]2 [FB] | B3- [GB]2 [GB]/[FA]/ | [EG][=FG][FG] (Gc)[Ge] | d3 !fermata!G2 G/[GA]/ | %16
w: ||||
w: * is in Thee a-|lone; Help me be|* what I ought * to|be, All my life,|
w: ||||
w: ||||
 [GB][GB][Gc] [GB]2 [DA] | [DG]3- [DG]2 |] %18
w: ||
w: ev- er- more Thine own.||
w: ||
w: ||
V:2
 x | x6 | x6 | x6 | x6 | x6 | x6 | x6 | x5 || x | x3 (GG) x | G2 F x3 | x6 | G2 F x3 | x3 E2 x | %15
 (G2 G G2) G/ x/ | x6 | x5 |] %18
V:3
 G,/G,/ | B,B,B, C2 C | [G,,G,B,]3- [G,,G,B,]2 B,/C/ | DDD E2 _E | [G,,G,D]3- [G,,G,D]2 B,/D/ | %5
w: |||||
 CCC ([E,-E][E,D])[G,C] | ([G,,-G,-B,]3 [G,,G,D]2) C/C/ | B,A,B, D2 C | %8
w: |||
 [G,,B,,D,B,]3- [G,,B,,D,B,]2 || G,/A,/ | B,[G,B,][G,B,] C2 [F,C] | [G,B,]2 [A,C] [B,D]2 z | %12
w: ||* Bless- èd Lord,~help me|thus to do,|
 z [E,E][E,E] [B,,^D][B,,D][^D,B,] | [E,B,]2 [F,A,] G,2 z | z [G,B,][G,B,] [C,C][C,C][E,C] | %15
w: For my strength is in|Thee a- lone;|Help me be~what I ought|
 [G,B,]2 [G,B,] [E,B,]2 [_E,^C]/[E,C]/ | [D,D][D,D][D,E] [D,D]2 [D,C] | [G,,B,]3- [G,,B,]2 |] %18
w: to be * * *|||
V:4
 x | [G,,G,-]3 [C,G,]3 | x6 | [G,,G,-]3 [C,G,]3 | x6 | [C,-E,]3 C,3 | x6 | [D,,D,]6 | x5 || x | %10
 x3 (C,E,) x | x6 | x6 | x3 G,2 x | x6 | x6 | x6 | x5 |] %18

